X:48
T:Do you see my Billy coming - Gilbert
%%VWML:SBG-1-2-387-0
F:http://www.vwml.org/record/SBG/1/2/387
Z:Original Sibelius transcriptions by M. & S. Graebe
M:4/4
I:linebreak $
K:Eb
V:1 treble nm="P1"
V:1
 G3 A B3 c | BAGF G2 E2 | G3 A B3 c | BAGA F4 |$ G2 A2 B2 e2 | B2 B>A A2 G2 | E3 F GFAF | %7
 E2 D2"^Chorus same" E4 :| %8
T:Do you see my Billy coming - Gerard
F:http://www.vwml.org/record/SBG/1/2/387
Z:Original Sibelius transcriptions by M. & S. Graebe
L:1/4
M:4/4
I:linebreak $
K:F
V:1 treble nm="P1"
V:2 treble 
V:1
 F3/2 A/ c d | c G A/G/ F | A3/2 B/ c f/A/ | B d c3/2 B/ |$ A B c f | B d c A | F3/2 G/ A B/G/ | %7
 F E F2 | %8
V:2
 x4 | x4 | x4 | x4 |$ x4 | x4 | x4 | c G x2 | %8
T:Do you see my Billy coming - Hard
F:http://www.vwml.org/record/SBG/1/2/387
Z:Original Sibelius transcriptions by M. & S. Graebe
M:4/4
I:linebreak $
K:D
V:1 treble nm="P1"
V:1
 D2 FG A3 B | AG FE F2 D2 | D2 FG A3 d | A2 GF E4 | F3 G A2 c | A2 A2 G G2 F |$ D D2 F FE GE | %7
w: |||||||
w: |||||||
w: |||||||
w: |||||||
w: |||||||
w: |||||||
 B,2 C2 D4 | DE FG A2 B2 | (AG FE) (F2 D2) | DE FG A2 d2 |$ A2 GF E4 | F2 GA d2 A2 | A2 G2 F2 E2 | %14
w: ||||||a g f e|
w: |||||||
w: |||||||
w: |||||||
w: |||||||
w: |chorus * * * * *||||||
 D2 FF DGE | B,2 C2 D4 | %16
w: fear I ne * sha se|Bil- ly *|
w: ||
w: ||
w: ||
w: ||
w: ||
T:Do you see my Billy coming - Kidson from old woman
F:http://www.vwml.org/record/SBG/1/2/387
Z:Original Sibelius transcriptions by M. & S. Graebe
M:4/4
I:linebreak $
K:G
V:1 treble nm="P1"
V:1
 A A/ A/ A A | d3/2 c/ B/A/ G | B3/2 c/ d e | d B A2 |$ B c d d | g g/g/ d/B/ G | B3/2 B/ c A | %7
 G F G2 | %8

